public/img/casting-icon-2.svg

<svg width="49" height="49" viewBox="0 0 49 49" fill="none" xmlns="http://www.w3.org/2000/svg">
<g clip-path="url(#clip0)">
<path d="M48.3569 41.5734L48.3301 41.5504L48.3607 41.516L47.6755 40.9379L42.8942 36.5126C42.8942 36.5126 42.8137 36.6006 42.6759 36.7346L42.5497 36.8724C41.4625 37.8907 37.9788 40.8269 33.8904 40.8805C33.8024 40.8805 33.7143 40.8805 33.6263 40.8805C31.4749 40.647 29.377 39.4909 27.2486 37.351C23.7152 33.7985 19.7915 31.8729 15.5614 31.6088C15.4427 31.6088 15.3278 31.6088 15.2091 31.6088C14.5728 31.5524 13.9335 31.5357 13.2951 31.559C6.9289 31.8193 2.19353 36.0915 0.589546 37.7376C0.252671 38.0553 0.0459412 38.2735 0.00383186 38.3195L0.026823 38.3424L0 38.3731L0.685249 38.9511L5.44741 43.3764C5.44741 43.3764 5.53166 43.2884 5.66948 43.1582L5.79583 43.0204C6.88302 42.006 10.3666 39.0698 14.455 39.0124C14.5431 39.0124 14.6311 39.0124 14.7153 39.0124C16.8705 39.2497 18.9684 40.402 21.0968 42.5419C24.6302 46.0944 28.554 48.0199 32.7841 48.2841C32.899 48.2841 33.0176 48.2841 33.1363 48.2841C33.7726 48.3406 34.4119 48.3572 35.0503 48.3338C41.4165 48.0735 46.1519 43.8052 47.7559 42.1591C48.0889 41.8413 48.2995 41.6193 48.3416 41.5772" fill="url(#paint0_linear)"/>
<path d="M45.2194 14.122C45.1084 13.9765 43.914 12.4605 42.2411 12.2079L40.0629 10.0297L37.0004 0.459375C36.9567 0.318387 36.8649 0.197157 36.7411 0.116737C36.6174 0.0363174 36.4694 0.00178648 36.3228 0.0191405H36.2577C36.0917 0.0210433 35.9329 0.0870434 35.8145 0.203338C35.696 0.319632 35.6272 0.477213 35.6222 0.643125V11.7447H28.7316V0.643125C28.7316 0.472558 28.6639 0.308976 28.5433 0.188367C28.4227 0.0677576 28.2591 0 28.0885 0C27.9179 0 27.7543 0.0677576 27.6337 0.188367C27.5131 0.308976 27.4453 0.472558 27.4453 0.643125V20.4575C27.4453 20.4575 27.4453 20.4805 27.4453 20.492C27.4472 20.5008 27.4472 20.5099 27.4453 20.5188C27.445 20.7988 27.4604 21.0787 27.4913 21.3571C27.6253 23.7305 28.1306 30.5867 29.4819 33.6301C29.5318 33.7439 29.6137 33.8407 29.7177 33.9087C29.8217 33.9767 29.9434 34.0129 30.0676 34.0129H34.2786C34.4029 34.0134 34.5247 33.9774 34.6288 33.9094C34.733 33.8413 34.8148 33.7442 34.8643 33.6301C35.0432 33.2206 35.1953 32.7999 35.3198 32.3706L36.2538 33.7334C36.3131 33.8198 36.3925 33.8904 36.4852 33.9391C36.578 33.9879 36.6813 34.0132 36.786 34.0129H39.1594C39.3303 34.0129 39.4943 33.9453 39.6155 33.8248C39.7367 33.7043 39.8053 33.5407 39.8064 33.3698C39.8064 26.6399 43.6077 20.2087 45.2385 17.7587C45.6164 17.2228 45.817 16.5821 45.8122 15.9264C45.8074 15.2708 45.5974 14.633 45.2117 14.1028L45.2194 14.122ZM28.7316 20.5111V19.2555H28.7623L32.2076 16.4227L35.6222 19.2248V20.4766C35.6203 20.4893 35.6203 20.5022 35.6222 20.5149C35.6203 20.5289 35.6203 20.5431 35.6222 20.557V20.6145C35.6222 20.6987 35.6031 20.9284 35.5839 21.2767C35.3427 23.6846 33.9072 25.5413 32.1731 25.5413C30.4389 25.5413 29.0302 23.7152 28.7661 21.3303C28.7393 20.8327 28.7239 20.5341 28.7239 20.5188L28.7316 20.5111ZM35.6146 13.6281V17.5711L33.222 15.5728L35.6146 13.6281ZM36.9009 12.6788L39.393 11.1934L40.794 12.5984C39.7987 13.3066 38.7804 14.7842 38.011 16.0973C37.6282 16.7174 37.2454 17.4448 36.9009 18.2142V12.6788ZM38.7231 10.0948L36.9009 11.1781V4.36789L38.7231 10.0948ZM34.2632 13.073L32.1999 14.7651L30.1365 13.073H34.2632ZM31.2007 15.5996L28.7316 17.5979V13.5477L31.2007 15.5996Z" fill="#5A2E91"/>
</g>
<defs>
<linearGradient id="paint0_linear" x1="24.1804" y1="31.5488" x2="24.182" y2="46.6273" gradientUnits="userSpaceOnUse">
<stop stop-color="#2A5BA6"/>
<stop offset="1" stop-color="#E2127E"/>
</linearGradient>
<clipPath id="clip0">
<rect width="49" height="49" fill="white"/>
</clipPath>
</defs>
</svg>

<svg width="49" height="49" fill="none" xmlns="http://www.w3.org/2000/svg"><g clip-path="url(#clip0)"><path d="M48.357 41.573l-.027-.023.03-.034-.684-.578-4.782-4.425s-.08.088-.218.222l-.126.137c-1.087 1.019-4.571 3.955-8.66 4.008h-.264c-2.151-.233-4.249-1.39-6.377-3.529-3.534-3.553-7.457-5.478-11.688-5.742h-.352a15.342 15.342 0 00-1.914-.05C6.93 31.819 2.194 36.092.59 37.738c-.337.317-.544.535-.586.581l.023.023-.027.031.685.578 4.762 4.425s.085-.088.222-.218l.127-.138c1.087-1.014 4.57-3.95 8.659-4.008h.26c2.155.238 4.253 1.39 6.382 3.53 3.533 3.552 7.457 5.478 11.687 5.742h.352a15.29 15.29 0 001.914.05c6.367-.26 11.102-4.529 12.706-6.175.333-.318.544-.54.586-.582" fill="url(#paint0_linear)"/><path d="M45.22 14.122c-.112-.146-1.306-1.662-2.979-1.914l-2.178-2.178L37 .46a.632.632 0 00-.677-.44h-.065a.643.643 0 00-.636.623v11.102h-6.89V.643a.643.643 0 10-1.287 0v19.849a7.527 7.527 0 00.046.865c.134 2.373.64 9.23 1.99 12.273a.64.64 0 00.587.383h4.21a.636.636 0 00.586-.383c.18-.41.331-.83.456-1.26l.934 1.363a.644.644 0 00.532.28h2.373a.647.647 0 00.647-.643c0-6.73 3.802-13.161 5.433-15.611a3.14 3.14 0 00-.027-3.656l.007.019zm-16.488 6.39v-1.256h.03l3.446-2.833 3.414 2.802v1.252a.13.13 0 000 .038.156.156 0 000 .042v.058c0 .084-.019.313-.038.662-.241 2.408-1.677 4.264-3.41 4.264-1.735 0-3.144-1.826-3.408-4.21a87.61 87.61 0 01-.042-.812l.008-.008zm6.883-6.884v3.943l-2.393-1.998 2.393-1.945zm1.286-.95l2.492-1.485 1.401 1.405c-.995.709-2.014 2.186-2.783 3.5a18.44 18.44 0 00-1.11 2.116V12.68zm1.822-2.583l-1.822 1.083v-6.81l1.822 5.727zm-4.46 2.978L32.2 14.765l-2.064-1.692h4.127zM31.201 15.6l-2.47 1.998v-4.05l2.47 2.052z" fill="#5A2E91"/></g><defs><linearGradient id="paint0_linear" x1="24.18" y1="31.549" x2="24.182" y2="46.627" gradientUnits="userSpaceOnUse"><stop stop-color="#2A5BA6"/><stop offset="1" stop-color="#E2127E"/></linearGradient><clipPath id="clip0"><path fill="#fff" d="M0 0h49v49H0z"/></clipPath></defs></svg>
